X: 2
T: Slängpolska #1 efter John-Erik Mattson, Rätan
M:3/4
L:1/8
%Q:1/4=150
R:sydjämtsk slängpolska
O:Sweden
A:Rätan, s. Jämtland
N:De första två polskor John-Erik lärde sig
N:(The first two polskas John-Erik learnt)
Z:Lennart Sohlman, Älta, Sweden
K:D
|:\
"D"a^g/a/ b>a (f>d) | "A"(3fgf (e>d) e>f |\
"A7"(3gfg (a>g) e>c |[1,3 "D"(cd) db a2 :|[2,4 "D"(cd) d4 :|
|:\
"D"f2 Af Af | {g}f>e (e>d) e>f |\
[1,3 "G"g2 Bg Bg | "D"(gb) a^g a2- :|\
[2,4 "A7"(3gfg (a>g) e>c | "D"(cd) d4 :|

%%sep 1 1 500

